X: 6381
T: Castle Garden
R: jig
M: 6/8
K: Gmajor
D|:GFG AFD|GFG Bcd|efg dBG|ABG FED|
GFG AFD|GFG Bcd|efg dBG|1 AGG G2D:|2 AGG G2d||
|:gfg dBG|gfg ecA|Bdg gfg|abg fed|
gfg dBG|gfg ecA|Bdg dBG|1 AGG G2d:|2 AGG G2D||

